**harm	**harte	**silbe	**rhyme	**timestamp	**phrase	**leadinstrument	**kern
*	*	*	*	*	*	*	*
*	*	*	*	*	*	*	*
*	*	*	*	*	*	*	*
*D:	*D:	*	*	*	*	*	*D:
1r;	N	.	.	0	.	r	1r;
*M4/4	*M4/4	*	*	*	*	*	*
*	*	*	*	*	*	*	*
=1	=1	=1	=1	=1	=1	=1	=1
*>Letter>A	*>Letter>A	*>Letter>A	*>Letter>A	*>Letter>A	*>Letter>A	*>Letter>A	*>Letter>A
*>Label>Intro	*>Label>Intro	*>Label>Intro	*>Label>Intro	*>Label>Intro	*>Label>Intro	*>Label>Intro	*>Label>Intro
2.-VII	C:maj	.	.	1.022	newline	guitar	1C 1e 1g
4IV	G:maj	.	.	2.569	.	guitar	4G 4b 4dd
=2	=2	=2	=2	=2	=2	=2	=2
*>Letter>B	*>Letter>B	*>Letter>B	*>Letter>B	*>Letter>B	*>Letter>B	*>Letter>B	*>Letter>B
*>Label>Verse	*>Label>Verse	*>Label>Verse	*>Label>Verse	*>Label>Verse	*>Label>Verse	*>Label>Verse	*>Label>Verse
1I	D:maj	Blue	.	3.084	newline	voice	1D 1f# 1a
.	.	Jean	.	.	.	.	.
.	.	.	.	.	.	.	.
.	.	.	.	.	.	.	.
.	.	.	.	.	.	.	.
.	.	I	.	.	.	.	.
=3	=3	=3	=3	=3	=3	=3	=3
1I	D:maj	just	.	5.061	.	voice	1D 1f# 1a
.	.	met	.	.	.	.	.
.	.	a	.	.	.	.	.
.	.	girl	.	.	.	.	.
.	.	named	.	.	.	.	.
.	.	Blue	.	.	.	.	.
=4	=4	=4	=4	=4	=4	=4	=4
1I	D:maj	_	.	7.038	.	voice	1D 1f# 1a
.	.	Jean	.	.	.	.	.
.	.	.	.	.	.	.	.
.	.	.	.	.	.	.	.
=6	=6	=6	=6	=6	=6	=6	=6
1I	D:maj	Blue	.	9.015	.	voice	1D 1f# 1a
.	.	Jean	.	.	.	.	.
.	.	.	.	.	.	.	.
.	.	.	.	.	.	.	.
.	.	She	.	.	.	.	.
.	.	got	.	.	.	.	.
.	.	a	.	.	.	.	.
=7	=7	=7	=7	=7	=7	=7	=7
1I	D:maj	cam-	.	10.992	newline	voice	1D 1f# 1a
.	.	-o-	.	.	.	.	.
.	.	-flaged	.	.	.	.	.
.	.	face	.	.	.	.	.
.	.	and	.	.	.	.	.
.	.	no	.	.	.	.	.
.	.	mon-	.	.	.	.	.
=8	=8	=8	=8	=8	=8	=8	=8
1IV	G:maj	-ey	a	12.969	.	voice	1G 1b 1dd
.	.	.	.	.	.	.	.
.	.	.	.	.	.	.	.
.	.	.	.	.	.	.	.
.	.	.	.	.	.	.	.
.	.	Re-	.	.	.	.	.
=9	=9	=9	=9	=9	=9	=9	=9
1IV	G:maj	-mem-	.	14.931	.	voice	1G 1b 1dd
.	.	-ber	.	.	.	.	.
.	.	.	.	.	.	.	.
.	.	.	.	.	.	.	.
.	.	.	.	.	.	.	.
.	.	They	.	.	.	.	.
=10	=10	=10	=10	=10	=10	=10	=10
1IV	G:maj	al-	.	16.892	.	voice	1G 1b 1dd
.	.	-ways	.	.	.	.	.
.	.	let	.	.	.	.	.
.	.	you	.	.	.	.	.
.	.	down	.	.	.	.	.
.	.	when	.	.	.	.	.
.	.	you	.	.	.	.	.
=11	=11	=11	=11	=11	=11	=11	=11
1IV	G:maj	need	A	18.854	.	voice	1G 1b 1dd
.	.	'em	.	.	.	.	.
.	.	.	.	.	.	.	.
.	.	.	.	.	.	.	.
.	.	.	.	.	.	.	.
.	.	Oh	.	.	.	.	.
=12	=12	=12	=12	=12	=12	=12	=12
1IV	G:maj	Blue	.	20.815	.	voice	1G 1b 1dd
.	.	Jean	.	.	.	.	.
.	.	.	.	.	.	.	.
.	.	.	.	.	.	.	.
.	.	.	.	.	.	.	.
.	.	Is	.	.	.	.	.
=13	=13	=13	=13	=13	=13	=13	=13
1IV	G:maj	hea-	.	22.777	.	voice	1G 1b 1dd
.	.	-ven	.	.	.	.	.
.	.	an-	.	.	.	.	.
.	.	-y	.	.	.	.	.
.	.	sweet-	.	.	.	.	.
.	.	-er	.	.	.	.	.
.	.	than	.	.	.	.	.
.	.	Blue	.	.	.	.	.
=14	=14	=14	=14	=14	=14	=14	=14
1I	D:maj	Jean	A	24.739	newline	voice	1D 1f# 1a
.	.	.	.	.	.	.	.
.	.	.	.	.	.	.	.
.	.	.	.	.	.	.	.
=14	=14	=14	=14	=14	=14	=14	=14
1I	D:maj	.	.	26.668	.	voice	1D 1f# 1a
.	.	.	.	.	.	.	.
.	.	She	.	.	.	.	.
.	.	got	.	.	.	.	.
.	.	a	.	.	.	.	.
=16	=16	=16	=16	=16	=16	=16	=16
1-VII	C:maj	po-	.	28.598	newline	voice	1C 1e 1g
.	.	-lice	.	.	.	.	.
.	.	bike	.	.	.	.	.
.	.	.	.	.	.	.	.
.	.	.	.	.	.	.	.
=17	=17	=17	=17	=17	=17	=17	=17
1I	D:maj	.	.	30.529	.	voice	1D 1f# 1a
.	.	.	.	.	.	.	.
.	.	.	.	.	.	.	.
.	.	She	.	.	.	.	.
.	.	got	.	.	.	.	.
.	.	a	.	.	.	.	.
=18	=18	=18	=18	=18	=18	=18	=18
2.-VII	C:maj	turned	.	32.461	.	voice	1C 1e 1g
.	.	up	.	.	.	.	.
.	.	nose	.	.	.	.	.
.	.	.	.	.	.	.	.
.	.	.	.	.	.	.	.
4IV	G:maj	.	.	33.909	.	voice	4G 4b 4dd
=19	=19	=19	=19	=19	=19	=19	=19
1V	A:maj	.	.	34.392	.	voice	1A 1cc# 1ee
=20	=20	=20	=20	=20	=20	=20	=20
1V	A:maj	.	.	36.323	.	voice	1A 1cc# 1ee
.	.	Some-	.	.	.	.	.
.	.	-times	.	.	.	.	.
.	.	I	.	.	.	.	.
.	.	feel	.	.	.	.	.
.	.	like	.	.	.	.	.
=21	=21	=21	=21	=21	=21	=21	=21
*>Letter>C	*>Letter>C	*>Letter>C	*>Letter>C	*>Letter>C	*>Letter>C	*>Letter>C	*>Letter>C
*>Label>Chorus	*>Label>Chorus	*>Label>Chorus	*>Label>Chorus	*>Label>Chorus	*>Label>Chorus	*>Label>Chorus	*>Label>Chorus
1iii	F#:min	(Oh	.	38.264	newline	voice	1F# 1a 1cc#
=22	=22	=22	=22	=22	=22	=22	=22
1iii7	F#:min11	_	.	40.178	.	voice	1F# 1a 1cc# 1ee
.	.	the	.	.	.	.	.
.	.	whole	.	.	.	.	.
.	.	hu-	.	.	.	.	.
.	.	-man	.	.	.	.	.
.	.	race)	.	.	.	.	.
=23	=23	=23	=23	=23	=23	=23	=23
1V	A:maj	_	.	42.102	.	voice	1A 1cc# 1ee
.	.	.	.	.	.	.	.
.	.	.	.	.	.	.	.
=24	=24	=24	=24	=24	=24	=24	=24
1V	A:maj	.	.	44.026	.	voice	1A 1cc# 1ee
.	.	Jazz-	.	.	.	.	.
.	.	-in'	.	.	.	.	.
.	.	for	.	.	.	.	.
.	.	Blue	.	.	.	.	.
.	.	Jean	A	.	.	.	.
=25	=25	=25	=25	=25	=25	=25	=25
1iii	F#:min	(Oh	.	45.95	newline	voice	1F# 1a 1cc#
=26	=26	=26	=26	=26	=26	=26	=26
1iii7	F#:min11	_	.	47.846	.	voice	1F# 1a 1cc# 1ee
.	.	and	.	.	.	.	.
.	.	when	.	.	.	.	.
.	.	my	.	.	.	.	.
.	.	Blue	.	.	.	.	.
.	.	Jean's	.	.	.	.	.
=27	=27	=27	=27	=27	=27	=27	=27
1V	A:maj	blue)	.	49.742	.	voice	1A 1cc# 1ee
.	.	.	.	.	.	.	.
.	.	.	.	.	.	.	.
=28	=28	=28	=28	=28	=28	=28	=28
1V	A:maj	.	.	51.637	.	voice	1A 1cc# 1ee
.	.	Blue	.	.	.	.	.
.	.	Jean	.	.	.	.	.
.	.	can	.	.	.	.	.
.	.	send	.	.	.	.	.
.	.	me	A	.	.	.	.
=29	=29	=29	=29	=29	=29	=29	=29
1iii	F#:min	(Oh	.	53.533	newline	voice	1F# 1a 1cc#
=30	=30	=30	=30	=30	=30	=30	=30
1iii7	F#:min11	_	.	55.443	.	voice	1F# 1a 1cc# 1ee
.	.	some-	.	.	.	.	.
.	.	-bod-	.	.	.	.	.
.	.	-y	.	.	.	.	.
.	.	send	.	.	.	.	.
.	.	me)	.	.	.	.	.
=31	=31	=31	=31	=31	=31	=31	=31
1V	A:maj	.	.	57.352	.	voice	1A 1cc# 1ee
=32	=32	=32	=32	=32	=32	=32	=32
1V	A:maj	.	.	59.262	.	voice	1A 1cc# 1ee
.	.	Some-	.	.	.	.	.
.	.	-bod-	.	.	.	.	.
.	.	-y	.	.	.	.	.
.	.	send	.	.	.	.	.
.	.	me	.	.	.	.	.
=33	=33	=33	=33	=33	=33	=33	=33
1iii	F#:min	(Oh	.	61.171	newline	voice	1F# 1a 1cc#
=34	=34	=34	=34	=34	=34	=34	=34
1iii7	F#:min11	_	.	63.07	.	voice	1F# 1a 1cc# 1ee
.	.	some-	.	.	.	.	.
.	.	-bod-	.	.	.	.	.
.	.	-y	.	.	.	.	.
.	.	send	.	.	.	.	.
.	.	me)	.	.	.	.	.
=35	=35	=35	=35	=35	=35	=35	=35
*>Letter>A	*>Letter>A	*>Letter>A	*>Letter>A	*>Letter>A	*>Letter>A	*>Letter>A	*>Letter>A
*>Label>Trans	*>Label>Trans	*>Label>Trans	*>Label>Trans	*>Label>Trans	*>Label>Trans	*>Label>Trans	*>Label>Trans
2.-VII	C:maj	.	.	64.968	newline	guitar	1C 1e 1g
4IV	G:maj	.	.	66.421	.	guitar	4G 4b 4dd
=36	=36	=36	=36	=36	=36	=36	=36
*>Letter>B	*>Letter>B	*>Letter>B	*>Letter>B	*>Letter>B	*>Letter>B	*>Letter>B	*>Letter>B
*>Label>Verse	*>Label>Verse	*>Label>Verse	*>Label>Verse	*>Label>Verse	*>Label>Verse	*>Label>Verse	*>Label>Verse
1I	D:maj	One	.	66.905	newline	voice	1D 1f# 1a
.	.	day	.	.	.	.	.
.	.	.	.	.	.	.	.
.	.	.	.	.	.	.	.
.	.	.	.	.	.	.	.
.	.	I'm	.	.	.	.	.
=37	=37	=37	=37	=37	=37	=37	=37
1I	D:maj	gonn-	.	68.84	.	voice	1D 1f# 1a
.	.	-a	.	.	.	.	.
.	.	write	.	.	.	.	.
.	.	a	.	.	.	.	.
.	.	po-	.	.	.	.	.
.	.	-em	.	.	.	.	.
.	.	in	.	.	.	.	.
.	.	a	.	.	.	.	.
=38	=38	=38	=38	=38	=38	=38	=38
1I	D:maj	lett-	(B	70.775	.	voice	1D 1f# 1a
.	.	-er	b)	.	.	.	.
.	.	.	.	.	.	.	.
.	.	.	.	.	.	.	.
.	.	.	.	.	.	.	.
=39	=39	=39	=39	=39	=39	=39	=39
1I	D:maj	One	.	72.71	.	voice	1D 1f# 1a
.	.	day	.	.	.	.	.
.	.	.	.	.	.	.	.
.	.	.	.	.	.	.	.
.	.	.	.	.	.	.	.
.	.	I'm	.	.	.	.	.
=40	=40	=40	=40	=40	=40	=40	=40
1I	D:maj	gonn-	.	74.645	.	voice	1D 1f# 1a
.	.	-a	.	.	.	.	.
.	.	get	.	.	.	.	.
.	.	that	.	.	.	.	.
.	.	fac-	.	.	.	.	.
.	.	-ult-	.	.	.	.	.
.	.	-y	.	.	.	.	.
.	.	to-	.	.	.	.	.
=41	=41	=41	=41	=41	=41	=41	=41
1IV	G:maj	-geth-	(B	76.58	newline	voice	1G 1b 1dd
.	.	-er	b)	.	.	.	.
.	.	.	.	.	.	.	.
.	.	.	.	.	.	.	.
.	.	.	.	.	.	.	.
.	.	Re-	.	.	.	.	.
=42	=42	=42	=42	=42	=42	=42	=42
1IV	G:maj	-mem-	.	78.509	.	voice	1G 1b 1dd
.	.	-ber	.	.	.	.	.
.	.	.	.	.	.	.	.
.	.	.	.	.	.	.	.
.	.	.	.	.	.	.	.
.	.	that	.	.	.	.	.
=43	=43	=43	=43	=43	=43	=43	=43
1IV	G:maj	eve-	.	80.438	.	voice	1G 1b 1dd
.	.	-ry-	.	.	.	.	.
.	.	-bod-	.	.	.	.	.
.	.	-y	.	.	.	.	.
.	.	has	.	.	.	.	.
.	.	to	.	.	.	.	.
.	.	wait	.	.	.	.	.
.	.	in	.	.	.	.	.
=44	=44	=44	=44	=44	=44	=44	=44
1IV	G:maj	line	C	82.368	.	voice	1G 1b 1dd
.	.	_	.	.	.	.	.
.	.	.	.	.	.	.	.
.	.	.	.	.	.	.	.
.	.	.	.	.	.	.	.
.	.	Oh	.	.	.	.	.
=45	=45	=45	=45	=45	=45	=45	=45
1IV	G:maj	Blue	.	84.297	.	voice	1G 1b 1dd
.	.	Jean	.	.	.	.	.
.	.	.	.	.	.	.	.
.	.	.	.	.	.	.	.
.	.	.	.	.	.	.	.
.	.	Oh	.	.	.	.	.
=46	=46	=46	=46	=46	=46	=46	=46
1IV	G:maj	look	.	86.226	.	voice	1G 1b 1dd
.	.	out	.	.	.	.	.
.	.	world	.	.	.	.	.
.	.	.	.	.	.	.	.
.	.	you	.	.	.	.	.
.	.	know	.	.	.	.	.
.	.	_	.	.	.	.	.
.	.	I've	.	.	.	.	.
.	.	got	.	.	.	.	.
=47	=47	=47	=47	=47	=47	=47	=47
1I	D:maj	mine	C	88.155	newline	voice	1D 1f# 1a
.	.	.	.	.	.	.	.
.	.	.	.	.	.	.	.
.	.	.	.	.	.	.	.
=48	=48	=48	=48	=48	=48	=48	=48
1I	D:maj	.	.	90.041	.	voice	1D 1f# 1a
.	.	.	.	.	.	.	.
.	.	.	.	.	.	.	.
.	.	She's	.	.	.	.	.
.	.	got	.	.	.	.	.
=49	=49	=49	=49	=49	=49	=49	=49
1-VII	C:maj	Lat-	.	91.926	newline	voice	1C 1e 1g
.	.	-in	.	.	.	.	.
.	.	roots	.	.	.	.	.
.	.	.	.	.	.	.	.
.	.	.	.	.	.	.	.
=49	=49	=49	=49	=49	=49	=49	=49
1I	D:maj	.	.	93.852	.	voice	1D 1f# 1a
.	.	.	.	.	.	.	.
.	.	.	.	.	.	.	.
.	.	She's	.	.	.	.	.
.	.	got	.	.	.	.	.
=50	=50	=50	=50	=50	=50	=50	=50
2.-VII	C:maj	eve-	.	95.778	.	voice	1C 1e 1g
.	.	-ry-	.	.	.	.	.
.	.	-thing	A	.	.	.	.
.	.	.	.	.	.	.	.
.	.	.	.	.	.	.	.
4IV	G:maj	.	.	97.223	.	voice	4G 4b 4dd
=51	=51	=51	=51	=51	=51	=51	=51
1V	A:maj	.	.	97.704	.	voice	1A 1cc# 1ee
=52	=52	=52	=52	=52	=52	=52	=52
1V	A:maj	.	.	99.63	.	voice	1A 1cc# 1ee
.	.	Some-	.	.	.	.	.
.	.	-times	.	.	.	.	.
.	.	I	.	.	.	.	.
.	.	feel	.	.	.	.	.
.	.	like	.	.	.	.	.
=53	=53	=53	=53	=53	=53	=53	=53
*>Letter>C	*>Letter>C	*>Letter>C	*>Letter>C	*>Letter>C	*>Letter>C	*>Letter>C	*>Letter>C
*>Label>Chorus	*>Label>Chorus	*>Label>Chorus	*>Label>Chorus	*>Label>Chorus	*>Label>Chorus	*>Label>Chorus	*>Label>Chorus
1iii	F#:min	(Oh	.	101.556	newline	voice	1F# 1a 1cc#
=54	=54	=54	=54	=54	=54	=54	=54
1iii7	F#:min11	_	.	103.465	.	voice	1F# 1a 1cc# 1ee
.	.	the	.	.	.	.	.
.	.	whole	.	.	.	.	.
.	.	hu-	.	.	.	.	.
.	.	-man	.	.	.	.	.
.	.	race)	.	.	.	.	.
=55	=55	=55	=55	=55	=55	=55	=55
1V	A:maj	_	.	105.374	.	voice	1A 1cc# 1ee
.	.	.	.	.	.	.	.
.	.	.	.	.	.	.	.
=56	=56	=56	=56	=56	=56	=56	=56
1V	A:maj	.	.	107.284	.	voice	1A 1cc# 1ee
.	.	Jazz-	.	.	.	.	.
.	.	-in'	.	.	.	.	.
.	.	for	.	.	.	.	.
.	.	Blue	.	.	.	.	.
.	.	Jean	A	.	.	.	.
=57	=57	=57	=57	=57	=57	=57	=57
1iii	F#:min	(Oh	.	109.193	newline	voice	1F# 1a 1cc#
=58	=58	=58	=58	=58	=58	=58	=58
1iii7	F#:min11	_	.	111.081	.	voice	1F# 1a 1cc# 1ee
.	.	and	.	.	.	.	.
.	.	when	.	.	.	.	.
.	.	my	.	.	.	.	.
.	.	Blue	.	.	.	.	.
.	.	Jean's	.	.	.	.	.
=59	=59	=59	=59	=59	=59	=59	=59
1V	A:maj	blue)	.	112.969	.	voice	1A 1cc# 1ee
.	.	.	.	.	.	.	.
.	.	.	.	.	.	.	.
=60	=60	=60	=60	=60	=60	=60	=60
1V	A:maj	.	.	114.858	.	voice	1A 1cc# 1ee
.	.	Blue	.	.	.	.	.
.	.	Jean	.	.	.	.	.
.	.	can	.	.	.	.	.
.	.	send	.	.	.	.	.
.	.	me	A	.	.	.	.
=61	=61	=61	=61	=61	=61	=61	=61
1iii	F#:min	(Oh	.	116.746	newline	voice	1F# 1a 1cc#
.	.	.	.	.	.	.	.
=62	=62	=62	=62	=62	=62	=62	=62
1iii7	F#:min11	_	.	118.623	.	voice	1F# 1a 1cc# 1ee
.	.	some-	.	.	.	.	.
.	.	-bod-	.	.	.	.	.
.	.	-y	.	.	.	.	.
.	.	send	.	.	.	.	.
.	.	me)	.	.	.	.	.
=63	=63	=63	=63	=63	=63	=63	=63
1V	A:maj	.	.	120.5	.	voice	1A 1cc# 1ee
=64	=64	=64	=64	=64	=64	=64	=64
1V	A:maj	.	.	122.377	.	voice	1A 1cc# 1ee
.	.	Some-	.	.	.	.	.
.	.	-bod-	.	.	.	.	.
.	.	-y	.	.	.	.	.
.	.	send	.	.	.	.	.
.	.	me	.	.	.	.	.
=65	=65	=65	=65	=65	=65	=65	=65
1iii	F#:min	(Oh	.	124.254	newline	voice	1F# 1a 1cc#
=66	=66	=66	=66	=66	=66	=66	=66
1iii7	F#:min11	_	.	126.13	.	voice	1F# 1a 1cc# 1ee
.	.	some-	.	.	.	.	.
.	.	-bod-	.	.	.	.	.
.	.	-y	.	.	.	.	.
.	.	send	.	.	.	.	.
.	.	me)	.	.	.	.	.
=67	=67	=67	=67	=67	=67	=67	=67
*>Letter>A	*>Letter>A	*>Letter>A	*>Letter>A	*>Letter>A	*>Letter>A	*>Letter>A	*>Letter>A
*>Label>Trans	*>Label>Trans	*>Label>Trans	*>Label>Trans	*>Label>Trans	*>Label>Trans	*>Label>Trans	*>Label>Trans
2.-VII	C:maj	.	.	128.005	newline	guitar	1C 1e 1g
4IV	G:maj	.	.	129.454	.	guitar	4G 4b 4dd
*>Letter>D	*>Letter>D	*>Letter>D	*>Letter>D	*>Letter>D	*>Letter>D	*>Letter>D	*>Letter>D
*>Label>Interlude	*>Label>Interlude	*>Label>Interlude	*>Label>Interlude	*>Label>Interlude	*>Label>Interlude	*>Label>Interlude	*>Label>Interlude
=68	=68	=68	=68	=68	=68	=68	=68
1I	D:maj	.	.	129.938	newline	guitar	1D 1f# 1a
=69	=69	=69	=69	=69	=69	=69	=69
1I	D:maj	.	.	131.819	.	guitar	1D 1f# 1a
=70	=70	=70	=70	=70	=70	=70	=70
1I	D:maj	.	.	133.701	.	guitar	1D 1f# 1a
=71	=71	=71	=71	=71	=71	=71	=71
1I	D:maj	.	.	135.582	.	guitar	1D 1f# 1a
.	.	Some-	.	.	.	.	.
.	.	-times	.	.	.	.	.
.	.	I	.	.	.	.	.
.	.	feel	.	.	.	.	.
.	.	like	.	.	.	.	.
=72	=72	=72	=72	=72	=72	=72	=72
*>Letter>C2	*>Letter>C2	*>Letter>C2	*>Letter>C2	*>Letter>C2	*>Letter>C2	*>Letter>C2	*>Letter>C2
*>Label>Chorus	*>Label>Chorus	*>Label>Chorus	*>Label>Chorus	*>Label>Chorus	*>Label>Chorus	*>Label>Chorus	*>Label>Chorus
1iii	F#:min	(Oh	.	137.464	newline	voice	1F# 1a 1cc#
=73	=73	=73	=73	=73	=73	=73	=73
1iii7	F#:min11	_	.	139.365	.	voice	1F# 1a 1cc# 1ee
.	.	the	.	.	.	.	.
.	.	whole	.	.	.	.	.
.	.	hu-	.	.	.	.	.
.	.	-man	.	.	.	.	.
.	.	race)	.	.	.	.	.
=74	=74	=74	=74	=74	=74	=74	=74
1V	A:maj	_	.	141.266	.	voice	1A 1cc# 1ee
.	.	.	.	.	.	.	.
.	.	.	.	.	.	.	.
=75	=75	=75	=75	=75	=75	=75	=75
1V	A:maj	.	.	143.167	.	voice	1A 1cc# 1ee
.	.	Jazz-	.	.	.	.	.
.	.	-in'	.	.	.	.	.
.	.	for	.	.	.	.	.
.	.	Blue	.	.	.	.	.
.	.	Jean	A	.	.	.	.
=76	=76	=76	=76	=76	=76	=76	=76
1iii	F#:min	(Oh	.	145.068	newline	voice	1F# 1a 1cc#
=77	=77	=77	=77	=77	=77	=77	=77
1iii7	F#:min11	_	.	146.951	.	voice	1F# 1a 1cc# 1ee
.	.	and	.	.	.	.	.
.	.	when	.	.	.	.	.
.	.	my	.	.	.	.	.
.	.	Blue	.	.	.	.	.
.	.	Jean's	.	.	.	.	.
=78	=78	=78	=78	=78	=78	=78	=78
1V	A:maj	blue)	.	148.834	.	voice	1A 1cc# 1ee
.	.	.	.	.	.	.	.
.	.	.	.	.	.	.	.
=79	=79	=79	=79	=79	=79	=79	=79
1V	A:maj	.	.	150.717	.	voice	1A 1cc# 1ee
.	.	Blue	.	.	.	.	.
.	.	Jean	.	.	.	.	.
.	.	can	.	.	.	.	.
.	.	send	.	.	.	.	.
.	.	me	A	.	.	.	.
=80	=80	=80	=80	=80	=80	=80	=80
1iii	F#:min	(Oh	.	152.599	newline	voice	1F# 1a 1cc#
.	.	.	.	.	.	.	.
=81	=81	=81	=81	=81	=81	=81	=81
1iii7	F#:min11	_	.	154.489	.	voice	1F# 1a 1cc# 1ee
.	.	some-	.	.	.	.	.
.	.	-bod-	.	.	.	.	.
.	.	-y	.	.	.	.	.
.	.	send	.	.	.	.	.
.	.	me)	.	.	.	.	.
=82	=82	=82	=82	=82	=82	=82	=82
1V	A:maj	.	.	156.379	.	voice	1A 1cc# 1ee
=83	=83	=83	=83	=83	=83	=83	=83
1V	A:maj	.	.	158.269	.	voice	1A 1cc# 1ee
.	.	Some-	.	.	.	.	.
.	.	-bod-	.	.	.	.	.
.	.	-y	.	.	.	.	.
.	.	send	.	.	.	.	.
.	.	me	.	.	.	.	.
=84	=84	=84	=84	=84	=84	=84	=84
1iii	F#:min	(Oh	.	160.159	newline	voice	1F# 1a 1cc#
=85	=85	=85	=85	=85	=85	=85	=85
1iii7	F#:min11	_	.	162.025	.	voice	1F# 1a 1cc# 1ee
.	.	some-	.	.	.	.	.
.	.	-bod-	.	.	.	.	.
.	.	-y	.	.	.	.	.
.	.	send	.	.	.	.	.
.	.	me)	.	.	.	.	.
=86	=86	=86	=86	=86	=86	=86	=86
1V	A:maj	.	.	163.89	.	voice	1A 1cc# 1ee
=87	=87	=87	=87	=87	=87	=87	=87
1V	A:maj	.	.	165.756	.	voice	1A 1cc# 1ee
.	.	Some-	.	.	.	.	.
.	.	-bod-	.	.	.	.	.
.	.	-y	.	.	.	.	.
.	.	.	.	.	.	.	.
.	.	Some-	.	.	.	.	.
.	.	-bod-	.	.	.	.	.
.	.	-y	.	.	.	.	.
=88	=88	=88	=88	=88	=88	=88	=88
1iii	F#:min	(Oh	.	167.622	newline	voice	1F# 1a 1cc#
.	.	.	.	.	.	.	.
=89	=89	=89	=89	=89	=89	=89	=89
1iii7	F#:min11	_	.	169.508	.	voice	1F# 1a 1cc# 1ee
.	.	some-	.	.	.	.	.
.	.	-bod-	.	.	.	.	.
.	.	-y	.	.	.	.	.
.	.	send	.	.	.	.	.
.	.	me)	.	.	.	.	.
=90	=90	=90	=90	=90	=90	=90	=90
1V	A:maj	.	.	171.394	.	voice	1A 1cc# 1ee
.	.	.	.	.	.	.	.
=91	=91	=91	=91	=91	=91	=91	=91
1V	A:maj	.	.	173.28	.	voice	1A 1cc# 1ee
.	.	Some-	.	.	.	.	.
.	.	-bod-	.	.	.	.	.
.	.	-y	.	.	.	.	.
.	.	send	.	.	.	.	.
.	.	me	.	.	.	.	.
=92	=92	=92	=92	=92	=92	=92	=92
1iii	F#:min	(Oh	.	175.166	newline	voice	1F# 1a 1cc#
=93	=93	=93	=93	=93	=93	=93	=93
1iii7	F#:min11	_	.	177.055	.	voice	1F# 1a 1cc# 1ee
.	.	some-	.	.	.	.	.
.	.	-bod-	.	.	.	.	.
.	.	-y	.	.	.	.	.
.	.	send	.	.	.	.	.
.	.	me)	.	.	.	.	.
=94	=94	=94	=94	=94	=94	=94	=94
*>Letter>A2	*>Letter>A2	*>Letter>A2	*>Letter>A2	*>Letter>A2	*>Letter>A2	*>Letter>A2	*>Letter>A2
*>Label>Outro	*>Label>Outro	*>Label>Outro	*>Label>Outro	*>Label>Outro	*>Label>Outro	*>Label>Outro	*>Label>Outro
2.-VII	C:maj	.	.	178.945	newline	guitar	1C 1e 1g
4IV	G:maj	.	.	180.386	.	guitar	4G 4b 4dd
=95	=95	=95	=95	=95	=95	=95	=95
2.-VII	C:maj	.	.	180.866	.	guitar	1C 1e 1g
4IV	G:maj	.	.	182.308	.	guitar	4G 4b 4dd
=96	=96	=96	=96	=96	=96	=96	=96
1II	E:5	.	.	182.788	newline	guitar	1E 1g# 1b
1r;	N	.	.	189.589	.	r	1r;
1r;	N	.	.	192.249	.	r	1r;
*-	*-	*-	*-	*-	*-	*-	*-
!!!BillboardChartDate: 1984/11/10
!!!BillboardPeak: 8
!!!BillboardWeeksOnChart: 18
!!!COC: David Bowie
!!!ENC: Nathaniel Condit-Schultz
!!!EST: Awating manual error checking and editing.
!!!OTL: Blue Jean
!!!RDF**harte: Chris Harte's syntax, used by MIREX
!!!RDF**harmony: **recip + pitch class of root + harmonic quality
!!!RDF**leadinstrument: original McGill primary instrumentation annotation
!!!RDF**phrase: newline = linebreak in original McGill transcription
!!!RDF**timestamp: McGill audio timestamp in seconds
!!!RDT: 2017/01/12/
!!!SampleActualRank: 8
!!!SampleID#: 0818
!!!SampleTargetRank: 8
!!!MBID: ef2d05cf-062b-49a1-85db-1f12868ad724
